X:328
T:Mr Lane's Maggot. (p)1695.PLFD.328
T:Richmond Ball. (p)1695.PLFD.328
M:4/4
L:1/8
Q:1/2=100
S:Playford, Dancing Master,9th Ed,1695.
R:.Maggot
O:England
H:1695.
Z:Chris Partington.
K:F
a4g4|f2gfe2A2|defge2A2|defge2A2|
a2bag2ag|f2gfe2A2|defge2^c2|d4-d4:|
|:F2A2F2A2|F2A2F2A2|A2GAF2A2|A2GAF2A2|
FGAG FGAG|FGAG FGAf|e2d2e2^c2|d4-d4:|
